static/fa/svgs/solid/envelope-open-text.svg

<svg xmlns="http://www.w3.org/2000/svg" viewBox="0 0 512 512"><!--! Font Awesome Free 6.1.1 by @fontawesome - https://fontawesome.com License - https://fontawesome.com/license/free (Icons: CC BY 4.0, Fonts: SIL OFL 1.1, Code: MIT License) Copyright 2022 Fonticons, Inc.--><path d="M256 417.1c-16.38 0-32.88-4.1-46.88-15.12L0 250.9V464c0 26.5 21.5 48 48 48h416c26.5 0 48-21.5 48-47.1v-214L302.9 402c-14 10-30.5 15.1-46.9 15.1zM493.6 163c-8.8-7-17.2-13.5-29.6-22.9V95.98c0-26.5-21.5-48-48-48l-77.5.002c-3.125-2.25-5.875-4.25-9.125-6.5C312.6 29.13 279.3-.373 256 .002 232.8-.373 199.4 29.13 182.6 41.5c-3.25 2.25-6 4.25-9.125 6.5H96c-26.5 0-48 21.5-48 48v44.12C35.63 149.5 27.25 156 18.38 163 6.75 172 0 186 0 200.8v10.62l96 69.37V96h320v184.7l96-69.37V200.8c0-14.8-6.7-28.8-18.4-37.8zM176 255.1h160c8.836 0 16-7.164 16-15.1 0-8.838-7.164-16-16-16H176c-8.836 0-16 7.162-16 16 0 8.8 7.2 15.1 16 15.1zm0-64h160c8.836 0 16-7.164 16-16 0-8.838-7.164-15.1-16-15.1H176c-8.836 0-16 7.162-16 15.1 0 9.7 7.2 16 16 16z"/></svg>

<svg xmlns="http://www.w3.org/2000/svg" viewBox="0 0 512 512"><!--! Font Awesome Free 6.1.1 by @fontawesome - https://fontawesome.com License - https://fontawesome.com/license/free (Icons: CC BY 4.0, Fonts: SIL OFL 1.1, Code: MIT License) Copyright 2022 Fonticons, Inc. --><path d="M256 417.1c-16.38 0-32.88-4.1-46.88-15.12L0 250.9v213.1C0 490.5 21.5 512 48 512h416c26.5 0 48-21.5 48-47.1V250.9l-209.1 151.1C288.9 412 272.4 417.1 256 417.1zM493.6 163C484.8 156 476.4 149.5 464 140.1v-44.12c0-26.5-21.5-48-48-48l-77.5 .0016c-3.125-2.25-5.875-4.25-9.125-6.5C312.6 29.13 279.3-.3732 256 .0018C232.8-.3732 199.4 29.13 182.6 41.5c-3.25 2.25-6 4.25-9.125 6.5L96 48c-26.5 0-48 21.5-48 48v44.12C35.63 149.5 27.25 156 18.38 163C6.75 172 0 186 0 200.8v10.62l96 69.37V96h320v184.7l96-69.37V200.8C512 186 505.3 172 493.6 163zM176 255.1h160c8.836 0 16-7.164 16-15.1c0-8.838-7.164-16-16-16h-160c-8.836 0-16 7.162-16 16C160 248.8 167.2 255.1 176 255.1zM176 191.1h160c8.836 0 16-7.164 16-16c0-8.838-7.164-15.1-16-15.1h-160c-8.836 0-16 7.162-16 15.1C160 184.8 167.2 191.1 176 191.1z"/></svg>
